static/files/images/img-existing.svg

<?xml version="1.0" encoding="UTF-8"?>
<svg version="1.1" viewBox="0 0 62 73" xmlns="http://www.w3.org/2000/svg" xmlns:xlink="http://www.w3.org/1999/xlink">
<g transform="translate(-2713 -1819)">
<use transform="translate(2714 1820.8)" fill="#3D54FF" xlink:href="#a"/>
<use transform="translate(2748.7 1874.9)" fill="#3D54FF" xlink:href="#a"/>
<use transform="translate(2726.6 1855.8)" fill="#3D54FF" xlink:href="#c"/>
<use transform="translate(2726.6 1836.7)" fill="#3D54FF" xlink:href="#b"/>
<use transform="translate(2748.7 1847.8)" fill="#FF842B" xlink:href="#a"/>
</g>
<defs>
<path id="a" d="m0 0v-1c-0.55228 0-1 0.44772-1 1l1-2.2204e-16zm25.263 0h1c0-0.55228-0.4478-1-1-1v1zm0 15.909v1c0.5522 0 1-0.4477 1-1h-1zm-25.263 0h-1c0 0.5523 0.44772 1 1 1l-2.2204e-16 -1zm0-14.909h25.263v-2h-25.263v2zm24.263-1v15.909h2v-15.909h-2zm1 14.909h-25.263v2h25.263v-2zm-24.263 1v-15.909h-2v15.909h2z"/>
<path id="c" d="m22.105 1c0.5522 0 1-0.44772 1-1s-0.4478-1-1-1v2zm-22.105-2c-0.55228 0-1 0.44772-1 1s0.44772 1 1 1v-2zm22.105 0h-22.105v2h22.105v-2z"/>
<path id="b" d="m1 0c0-0.55228-0.44772-1-1-1s-1 0.44772-1 1h2zm-1 46.136h-1c0 0.5522 0.44772 1 1 1l-2.2204e-16 -1zm22.105 1c0.5522 0 1-0.4478 1-1 0-0.5523-0.4478-1-1-1v2zm-23.105-47.136v46.136h2v-46.136h-2zm1 47.136h22.105v-2h-22.105v2z"/>
</defs>
</svg>

<svg width="62" height="73" viewBox="0 0 62 73" version="1.1" xmlns="http://www.w3.org/2000/svg" xmlns:xlink="http://www.w3.org/1999/xlink">
<title>icons8-stacked_organizational_chart_highlighted_first_node</title>
<desc>Created using Figma</desc>
<g id="Canvas" transform="translate(-2713 -1819)">
<g id="icons8-stacked_organizational_chart_highlighted_first_node">
<g id="Vector">
<use xlink:href="#path0_stroke" transform="translate(2714 1820.83)" fill="#3D54FF"/>
</g>
<g id="Vector">
<use xlink:href="#path0_stroke" transform="translate(2748.74 1874.92)" fill="#3D54FF"/>
</g>
<g id="Vector">
<use xlink:href="#path1_stroke" transform="translate(2726.63 1855.83)" fill="#3D54FF"/>
</g>
<g id="Vector">
<use xlink:href="#path2_stroke" transform="translate(2726.63 1836.74)" fill="#3D54FF"/>
</g>
<g id="Vector">
<use xlink:href="#path0_stroke" transform="translate(2748.74 1847.83)" fill="#FF842B"/>
</g>
</g>
</g>
<defs>
<path id="path0_stroke" d="M 0 0L 0 -1C -0.552285 -1 -1 -0.552285 -1 2.22045e-16L 0 0ZM 25.2632 0L 26.2632 0C 26.2632 -0.552285 25.8154 -1 25.2632 -1L 25.2632 0ZM 25.2632 15.9091L 25.2632 16.9091C 25.8154 16.9091 26.2632 16.4614 26.2632 15.9091L 25.2632 15.9091ZM 0 15.9091L -1 15.9091C -1 16.4614 -0.552285 16.9091 2.22045e-16 16.9091L 0 15.9091ZM 0 1L 25.2632 1L 25.2632 -1L 0 -1L 0 1ZM 24.2632 0L 24.2632 15.9091L 26.2632 15.9091L 26.2632 0L 24.2632 0ZM 25.2632 14.9091L 0 14.9091L 0 16.9091L 25.2632 16.9091L 25.2632 14.9091ZM 1 15.9091L 1 0L -1 0L -1 15.9091L 1 15.9091Z"/>
<path id="path1_stroke" d="M 22.1053 1C 22.6575 1 23.1053 0.552285 23.1053 0C 23.1053 -0.552285 22.6575 -1 22.1053 -1L 22.1053 1ZM 0 -1C -0.552285 -1 -1 -0.552285 -1 0C -1 0.552285 -0.552285 1 0 1L 0 -1ZM 22.1053 -1L 0 -1L 0 1L 22.1053 1L 22.1053 -1Z"/>
<path id="path2_stroke" d="M 1 0C 1 -0.552285 0.552285 -1 0 -1C -0.552285 -1 -1 -0.552285 -1 0L 1 0ZM 0 46.1364L -1 46.1364C -1 46.6886 -0.552285 47.1364 2.22045e-16 47.1364L 0 46.1364ZM 22.1053 47.1364C 22.6575 47.1364 23.1053 46.6886 23.1053 46.1364C 23.1053 45.5841 22.6575 45.1364 22.1053 45.1364L 22.1053 47.1364ZM -1 0L -1 46.1364L 1 46.1364L 1 0L -1 0ZM 0 47.1364L 22.1053 47.1364L 22.1053 45.1364L 0 45.1364L 0 47.1364Z"/>
</defs>
</svg>
